X: 115
T: Lama ye de liwu The priviledge of the Lama
L: 1/8
M: 2/4
K: C
d d e e [I:setbarnb 1]| 
d e e/ d/ c | 
A A/ c/ d/ c/ A/ c/ | 
d> c d e | 
G G/ A/ E G | 
c c d e | 
A/ c/ A/ G/ G/ E/ c | 
A4 | 
d d e e | 
d e e/ d/ c | 
A A/ c/ d/ c/ A/ c/ | 
d> c d e | 
G G/ A/ E G | 
c c d e | 
A/ c/ A/ G/ G/ E/ c | 
A4 |]

@@@ Tune index: 8783
